svg/fluentui-system-icons/ic_fluent_square_hint_arrow_back_20_regular.svg

<svg width="20" height="20" viewBox="0 0 20 20" fill="none" xmlns="http://www.w3.org/2000/svg">
<path d="M6 3.5C6 3.22388 5.77612 3 5.5 3C4.11926 3 3 4.11926 3 5.5C3 5.77612 3.22388 6 3.5 6C3.77612 6 4 5.77612 4 5.5C4 4.67157 4.67163 4 5.5 4C5.77612 4 6 3.77612 6 3.5ZM16.5 6C16.7761 6 17 5.77612 17 5.5C17 4.11926 15.8807 3 14.5 3C14.2239 3 14 3.22388 14 3.5C14 3.77612 14.2239 4 14.5 4C15.3285 4 16 4.67157 16 5.5C16 5.77612 16.2239 6 16.5 6ZM3.5 14C3.22388 14 3 14.2239 3 14.5C3 15.8807 4.11926 17 5.5 17C5.77612 17 6 16.7761 6 16.5C6 16.2239 5.77612 16 5.5 16C4.67151 16 4 15.3284 4 14.5C4 14.2239 3.77612 14 3.5 14ZM3 9C3 8.72388 3.22388 8.5 3.5 8.5C3.77612 8.5 4 8.72388 4 9V11C4 11.2761 3.77612 11.5 3.5 11.5C3.22388 11.5 3 11.2761 3 11V9ZM16.5 7.5C16.2239 7.5 16 7.72388 16 8V9.20703C16.3486 9.30564 16.6832 9.43777 17 9.59971V8C17 7.72388 16.7761 7.5 16.5 7.5ZM9.59971 17C9.43777 16.6832 9.30564 16.3486 9.20703 16H8C7.72388 16 7.5 16.2239 7.5 16.5C7.5 16.7761 7.72388 17 8 17H9.59971ZM8.5 3.5C8.5 3.22388 8.72388 3 9 3H11C11.2761 3 11.5 3.22388 11.5 3.5C11.5 3.77612 11.2761 4 11 4H9C8.72388 4 8.5 3.77612 8.5 3.5ZM14.5 19C16.9853 19 19 16.9853 19 14.5C19 12.0147 16.9853 10 14.5 10C12.0147 10 10 12.0147 10 14.5C10 16.9853 12.0147 19 14.5 19ZM13.6036 12.6036L12.7071 13.5H14.25C15.7688 13.5 17 14.7312 17 16.25V16.5C17 16.7761 16.7761 17 16.5 17C16.2239 17 16 16.7761 16 16.5V16.25C16 15.2835 15.2165 14.5 14.25 14.5H12.7071L13.6036 15.3964C13.7988 15.5917 13.7988 15.9083 13.6036 16.1036C13.4083 16.2988 13.0917 16.2988 12.8964 16.1036L11.1443 14.3514C11.0974 14.304 11.062 14.2495 11.0379 14.1914C11.0135 14.1324 11 14.0678 11 14C11 13.9322 11.0135 13.8676 11.0379 13.8086C11.0623 13.7496 11.0985 13.6944 11.1464 13.6464L12.8964 11.8964C13.0917 11.7012 13.4083 11.7012 13.6036 11.8964C13.7988 12.0917 13.7988 12.4083 13.6036 12.6036Z" fill="#212121"/>
</svg>

<svg xmlns="http://www.w3.org/2000/svg" width="20" height="20"><path d="M6 3.5a.5.5 0 0 0-.5-.5A2.5 2.5 0 0 0 3 5.5a.5.5 0 0 0 1 0A1.5 1.5 0 0 1 5.5 4a.5.5 0 0 0 .5-.5ZM16.5 6a.5.5 0 0 0 .5-.5A2.5 2.5 0 0 0 14.5 3a.5.5 0 0 0 0 1A1.5 1.5 0 0 1 16 5.5a.5.5 0 0 0 .5.5Zm-13 8a.5.5 0 0 0-.5.5A2.5 2.5 0 0 0 5.5 17a.5.5 0 0 0 0-1A1.5 1.5 0 0 1 4 14.5a.5.5 0 0 0-.5-.5ZM3 9a.5.5 0 0 1 1 0v2a.5.5 0 0 1-1 0V9Zm13.5-1.5a.5.5 0 0 0-.5.5v1.207c.349.099.683.23 1 .393V8a.5.5 0 0 0-.5-.5ZM9.6 17a5.465 5.465 0 0 1-.393-1H8a.5.5 0 0 0 0 1h1.6ZM8.5 3.5A.5.5 0 0 1 9 3h2a.5.5 0 0 1 0 1H9a.5.5 0 0 1-.5-.5Zm6 15.5a4.5 4.5 0 1 0 0-9 4.5 4.5 0 0 0 0 9Zm-.896-6.396-.897.896h1.543A2.75 2.75 0 0 1 17 16.25v.25a.5.5 0 0 1-1 0v-.25a1.75 1.75 0 0 0-1.75-1.75h-1.543l.897.896a.5.5 0 0 1-.708.708l-1.752-1.753a.499.499 0 0 1 .002-.705l1.75-1.75a.5.5 0 0 1 .708.708Z"/></svg>
